X: 1
T: Number 28
M: 6/8
L: 1/8
R: jig
K: Dmaj
|:A2d fed|dcB BAF|FAd dcd|eEE EFG|
ABd fed|dcB BAG|FAd cec|1dAf dFG:|2dAf dcd||
|:e2e efg|f2d dcd|Bef gfe|dcB Acd|
[1 e2e efg|f2d dcd|Bef gfe|dAf dcd:|
[2ABd fed|dcB BAG|FAd cec|dAf d3||
